X:1
T:Title
%%score { ( 1 3 ) | ( 2 4 ) }
L:1/8
M:4/4
K:Eb
V:1 treble nm="Grand Piano"
V:3 treble 
V:2 bass 
V:4 bass 
V:1
 z4 z2[Q:1/4=100] G2 | F2 E2 A2 G2 | z2 A,2 E2 [Ec]2 | B2 G2 E2 F2 | G6 B2 | A2 G2 F2 E2 | %6
 [B,DF]4 [B,EG]2 [D_G=A]2 | [DGB]2 [CE=A]2 [B,DG]2 [=A,D_G]2 | [B,DG]6 .[B,DF]2 | %9
 [G,E]2 [B,EG]2 [B,DF]2 [B,FA]2 | [B,EG]2 [EGc]2 [CFA]2 [B,FB]2 | G2 B2 A2 G2 | [DF]6 [DB]2 | %13
 [FA]2 G2 c2 B2 | [Ge]2 [Ac]2 [GB]2 [B,FA]2 | [B,EG]2 .[CEA]2 [B,EG]2 [A,DF]2 |[M:3/4] [G,E]6 |] %17
V:2
 z4 z2 [E,B,E]2 | [A,B,D]2 [G,B,]2 [F,B,D]2 [E,B,E]2 | B,2 z2 [C,G,]2 [A,,A,]2 | %3
 [E,G,E]2 [E,B,E]2 [G,B,]2 [F,B,D]2 | [E,B,E]6 [G,B,E]2 | [F,B,D]2 [E,B,E]2 [D,B,]2 [C,=A,C]2 | %6
 B,,4 E,2 D,2 | G,2 C,2 D,2 D,2 | G,,6 z A, | C,2 G,,2 B,,2 D,2 | E,2 C,2 F,2 D,2 | %11
 [E,B,E]2 [G,B,E]2 [F,B,D]2 [E,B,E]2 | [B,,B,]6 [B,,F,]2 | [D,B,]2 [E,B,E]2 [E,A,E]2 [E,G,E]2 | %14
 [E,B,]2 [E,E]2 [E,E]2 D,2 | E,2 z G B,,2 B,,2 |[M:3/4] E,6 |] %17
V:3
 x8 | x8 | [DF]4 z4 | x8 | x8 | x8 | x8 | x8 | x8 | x8 | x8 | x8 | x8 | x8 | x8 | x8 |[M:3/4] x6 |] %17
V:4
 x8 | x8 | B,,4 z4 | x8 | x8 | x8 | x8 | x8 | z4 z2 B,,2 | x8 | x8 | x8 | x8 | x8 | x8 | %15
 z2 A,,2 z4 |[M:3/4] x6 |] %17

